app/dist/common/images/rimini-street.svg

<svg height="18" viewBox="0 0 18 18" width="18" xmlns="http://www.w3.org/2000/svg"><path d="m18 0h-18v18h18z" fill="#f0f3fa"/><path d="m12.16 6.95c.82.2 1.84.43 1.84 1.51 0 .96-.73 1.54-1.95 1.54a2.85 2.85 0 0 1 -2.05-.75l.53-.73c.47.48.85.48 1.45.48h.07c.63 0 .96-.13.96-.42 0-.39-.5-.5-1.07-.64-.8-.18-1.8-.42-1.8-1.48 0-.86.76-1.46 1.86-1.46.7-.02 1.37.21 1.88.65l-.44.7c-.4-.33-.9-.35-1.44-.35-.46 0-.85.04-.85.37 0 .34.47.45 1.02.58zm-4.16 3.05h-1l-1-2h-1v2h-1v-5h2.3c.9-.05 1.75.68 1.69 1.6 0 .58-.44 1.17-.99 1.4zm-3-4v1h1.15c.35 0 .85-.08.85-.5 0-.49-.38-.5-.85-.5z" fill="#231f20"/><path d="m4 12h10v1h-10z" fill="#ffdf00"/></svg>

<!-- by TradingView --><svg xmlns="http://www.w3.org/2000/svg" width="18" height="18" viewBox="0 0 18 18"><path d="M18 0H0v18h18V0Z" fill="#F0F3FA"/><path d="M12.16 6.95c.82.2 1.84.43 1.84 1.51 0 .96-.73 1.54-1.95 1.54A2.85 2.85 0 0 1 10 9.25l.53-.73c.47.48.85.48 1.45.48h.07c.63 0 .96-.13.96-.42 0-.39-.5-.5-1.07-.64-.8-.18-1.8-.42-1.8-1.48C10.14 5.6 10.9 5 12 5c.7-.02 1.37.21 1.88.65l-.44.7c-.4-.33-.9-.35-1.44-.35-.46 0-.85.04-.85.37 0 .34.47.45 1.02.58ZM8 10H7L6 8H5v2H4V5h2.3c.9-.05 1.75.68 1.69 1.6 0 .58-.44 1.17-.99 1.4l1 2ZM5 6v1h1.15C6.5 7 7 6.92 7 6.5c0-.49-.38-.5-.85-.5H5Z" fill="#231F20"/><path d="M4 12h10v1H4v-1Z" fill="#FFDF00"/></svg>
